Bloom-Colors/scalable/actions/keyboard-layout-filled-symbolic.svg

<svg xmlns="http://www.w3.org/2000/svg" width="16" height="16" version="1.1">
 <path style="fill:#444444" d="M 8 0 A 8 8 0 0 0 0 8 A 8 8 0 0 0 8 16 A 8 8 0 0 0 16 8 A 8 8 0 0 0 8 0 z M 10.304688 2.4628906 A 6 6 0 0 1 13.1875 5 L 11.503906 5 C 11.222633 4.1461563 10.817854 3.2993746 10.304688 2.4628906 z M 5.6933594 2.4667969 C 5.1812973 3.3020617 4.7769473 4.1474312 4.4960938 5 L 2.8105469 5 A 6 6 0 0 1 5.6933594 2.4667969 z M 8 2.609375 C 8.5964021 3.420226 9.0528286 4.2159929 9.3769531 5 L 6.6230469 5 C 6.9471713 4.2159929 7.403598 3.420226 8 2.609375 z M 2.0898438 7 L 4.0566406 7 C 4.0198242 7.3377506 3.9990328 7.6764232 4 8.015625 C 4.0009374 8.3442824 4.0184324 8.6731038 4.0546875 9 L 2.0859375 9 A 6 6 0 0 1 2 8 A 6 6 0 0 1 2.0898438 7 z M 6.0761719 7 L 9.9238281 7 C 9.970018 7.3380323 10.000956 7.6745387 10 8.0097656 C 9.9990623 8.3386173 9.9661846 8.6686041 9.9199219 9 L 6.0800781 9 C 6.0338154 8.6686041 6.0009377 8.3386173 6 8.0097656 C 5.9990441 7.6745387 6.029982 7.3380323 6.0761719 7 z M 11.943359 7 L 13.914062 7 A 6 6 0 0 1 14 8 A 6 6 0 0 1 13.910156 9 L 11.945312 9 C 11.981567 8.6731038 11.999063 8.3442824 12 8.015625 C 12.000967 7.6764232 11.980176 7.3377506 11.943359 7 z M 2.8125 11 L 4.5 11 C 4.7829315 11.856334 5.1906009 12.702417 5.703125 13.539062 A 6 6 0 0 1 2.8125 11 z M 6.6308594 11 L 9.3691406 11 C 9.0447003 11.783493 8.5906746 12.577094 8 13.384766 C 7.4093254 12.577094 6.9552997 11.783493 6.6308594 11 z M 11.5 11 L 13.189453 11 A 6 6 0 0 1 10.298828 13.535156 C 10.810255 12.699728 11.217491 11.855055 11.5 11 z"/>
</svg>

<svg width="16" height="16" version="1.1" xmlns="http://www.w3.org/2000/svg">
<path d="m8 0a8 8 0 0 0-8 8 8 8 0 0 0 8 8 8 8 0 0 0 8-8 8 8 0 0 0-8-8zm2.3047 2.4629a6 6 0 0 1 2.8828 2.5371h-1.6836c-0.28127-0.85384-0.68605-1.7006-1.1992-2.5371zm-4.6113 0.0039063c-0.51206 0.83526-0.91641 1.6806-1.1973 2.5332h-1.6855a6 6 0 0 1 2.8828-2.5332zm2.3066 0.14258c0.5964 0.81085 1.0528 1.6066 1.377 2.3906h-2.7539c0.32412-0.78401 0.78055-1.5798 1.377-2.3906zm-5.9102 4.3906h1.9668c-0.036816 0.33775-0.057608 0.67642-0.056641 1.0156 9.374e-4 0.32866 0.018432 0.65748 0.054688 0.98438h-1.9688a6 6 0 0 1-0.085938-1 6 6 0 0 1 0.089844-1zm3.9863 0h3.8477c0.04619 0.33803 0.077128 0.67454 0.076172 1.0098-9.377e-4 0.32885-0.033815 0.65884-0.080078 0.99023h-3.8398c-0.046263-0.3314-0.07914-0.66138-0.080078-0.99023-9.559e-4 -0.33523 0.029982-0.67173 0.076172-1.0098zm5.8672 0h1.9707a6 6 0 0 1 0.085938 1 6 6 0 0 1-0.089844 1h-1.9648c0.036255-0.3269 0.053751-0.65572 0.054688-0.98438 9.67e-4 -0.3392-0.019824-0.67787-0.056641-1.0156zm-9.1309 4h1.6875c0.28293 0.85633 0.6906 1.7024 1.2031 2.5391a6 6 0 0 1-2.8906-2.5391zm3.8184 0h2.7383c-0.32444 0.78349-0.77847 1.5771-1.3691 2.3848-0.59067-0.80767-1.0447-1.6013-1.3691-2.3848zm4.8691 0h1.6895a6 6 0 0 1-2.8906 2.5352c0.51143-0.83543 0.91866-1.6801 1.2012-2.5352z" fill="#666"/>
</svg>
